X:302
T: ES LASSEN SICH DIE TODTEN FUERSTEN BALSAMIEREN
N: F0527
O: Europa, Mitteleuropa, Deutschland
R: Studenten - Lied
M: 2/4
L: 1/8
K: G
D | GABc | d2d2 |
ecge | edd2 |
ecge | edd2 |
dccc | B2B
B | A2dd | B2z2 |
dccc | B2B
B | A2BA | G2z
D | GABc | d2d2 |
ecge | edd
d | ecge | edd2 |
dccc | B2B
B | A2dd | g4 |
e2ee | edd
B | d2cA | G2z

@@@ Tune index: 5733
